!!!SOCIAL_FUNCTION:	game songs
!!!PDT:	1943
!!!OTL: No_59_Slahal_Game_Song_(a).krn
!!!REG: British Columbia
**kern	**kern
*staff2	*staff1
=1-	=1-
=	=
*clefF4	*clefF4
*k[f#c#g#]	*k[f#c#g#]
*M2/4	*M2/4
12GG#/L	4.c#\
12GG#/	.
12GG#/J	.
12GG#/L	.
12GG#/	.
.	8B\
12GG#/J	.
=2	=2
12GG#/L	[12B\L
12GG#/	12B\]
12GG#/J	12B\J
4r	8B\
.	8r
=3	=3
2r	4.c#\
.	8B\
=4	=4
2r	[12B\L
.	12B\]
.	12B\J
.	8B\
.	8r
=5	=5
2r	[12c#\L
.	12c#\]
.	12c#\J
.	12c#\L
.	12B\
.	12c#\J
=6	=6
2r	12B\L
.	12A\
.	12A\J
.	8A\
.	8r
=7	=7
2r	(4B\
.	12B\L)
.	12A\
.	12A\J
=8	=8
2r	[12F#\L
.	12F#\]
.	12F#\J
.	8F#\
.	8r
=9	=9
2r	2F#\
=10	=10
2r	[12A\L
.	12A\]
.	12A\J
.	4A\
==:|!	==:|!
*-	*-
